X: 573
T: Absynthe Makes The Heart Grow Fonder
R: reel
M: 4/4
K: Emajor
|:e3e dcBA|e2f/g/a g2fe|zABe ffBA|Befg a3a|
bgab c'2e2|a3g/f/ e4|BABf eeBA|1 Bde2 f2gf:|2 Bde2 f4||
|:Be=d=c B=GGG|AEF/=G/A Bcde|fega b~e3|a3f/e/ =d4|
Be=d=c B=~G3|A~E3 EF=GA|BABf eeBA|1 Bde2 f4:|2 Bde2 f2gf||

